X: 13415
T: Floating Barge, The
R: reel
M: 4/4
K: Dmajor
|:AFEF AFdF|AFEF A2dB|AFEF AFDF|FEDF E2dB|
AFEF AFdF|AFEF A2dB|defd afed|1 BAFD E2 dB:|2 BAFD E3e||
|:defa a2fb|afed B2BA|defa a2fb|afed e2fe|
defa a2fb|afed B3e|fedB AFF2|1 ABdf e2fe:|2 ABdf e4||

